assets/hedia-logo.svg

<svg width="500" height="150" viewBox="0 0 500 150" fill="none" xmlns="http://www.w3.org/2000/svg">
    <path class="icon" fill-rule="evenodd" clip-rule="evenodd"
        d="M0 116.029C0.752235 124.666 4.58104 132.689 10.9682 138.889C18.1282 145.84 27.6498 149.667 37.7783 149.667L38.7258 149.656C48.4973 149.425 57.6498 145.623 64.5861 138.889L80.5946 123.353L73.4231 116.395L57.4169 131.93C52.1713 137.022 45.1961 139.825 37.7783 139.825C30.3581 139.825 23.383 137.022 18.1373 131.93C12.8917 126.839 10.003 120.069 10.003 112.869C10.003 105.667 12.8917 98.8974 18.1373 93.806L34.1047 78.3082C36.0852 76.386 36.0852 73.2722 34.1047 71.35L18.1373 55.8522C7.30831 45.3417 7.30831 28.2383 18.1373 17.7278C23.5541 12.4704 30.6639 9.84383 37.7783 9.84383C44.8881 9.84383 52.0024 12.4726 57.4169 17.7278L96.6099 55.7658C107.439 66.2785 107.439 83.3819 96.6099 93.8924L80.5946 109.437L87.7637 116.395L103.779 100.851C118.56 86.5023 118.56 63.1559 103.779 48.8075L64.5861 10.7695C57.1956 3.59423 47.4869 0.00878906 37.7783 0.00878906C28.0696 0.00878906 18.3586 3.59423 10.9682 10.7695C4.34372 17.1992 0.687732 25.4355 0.000201078 33.8593V39.7224C0.687732 48.146 4.34372 56.3818 10.9682 62.8105L23.351 74.8291L10.9682 86.8477C4.57901 93.049 0.7518 101.071 0 109.709V116.029Z"
        fill="url(#paint0_linear_1075_9857)" />
    <g opacity="0.8">
        <path class="icon" fill-rule="evenodd" clip-rule="evenodd"
            d="M123.418 0C113.292 0 103.771 3.82905 96.6106 10.7785L80.6021 26.3139L87.7735 33.2722L103.78 17.7367C109.025 12.6454 116.001 9.83947 123.418 9.83947C130.839 9.83947 137.814 12.6454 143.059 17.7367C153.888 28.2472 153.888 45.3506 143.059 55.8611L127.092 71.3589C125.111 73.2789 125.111 76.3949 127.092 78.3171L143.059 93.8149C153.888 104.325 153.888 121.429 143.059 131.939C137.814 137.031 130.839 139.834 123.421 139.834C116.001 139.834 109.025 137.031 103.78 131.939L64.5868 93.9013C59.3411 88.8077 56.4502 82.0399 56.4502 74.838C56.4502 67.6383 59.3411 60.8683 64.5868 55.7747L80.6021 40.2304L73.4329 33.2722L57.4176 48.8164C50.2576 55.7681 46.3125 65.0096 46.3125 74.838C46.3125 84.6686 50.2576 93.9079 57.4176 100.86L96.6106 138.898C103.771 145.849 113.292 149.676 123.418 149.676H123.421C133.547 149.676 143.068 145.849 150.228 138.898C165.012 124.549 165.012 101.205 150.228 86.8566L137.846 74.838L150.228 62.8194C165.012 48.471 165.012 25.1246 150.228 10.7785C143.068 3.82683 133.547 0 123.418 0Z"
            fill="url(#paint1_linear_1075_9857)" />
    </g>
    <path class="text" fill-rule="evenodd" clip-rule="evenodd"
        d="M207.243 26.6726H221.575V64.0329C227.779 60.0688 233.69 55.9275 243.73 55.9275C258.242 55.9275 263.604 66.0482 263.604 77.6306V120.837H249.227V77.4534C249.227 70.5217 245.692 67.7535 240.558 67.7535C232.504 67.7535 228.328 69.7466 221.62 73.755V120.837H207.243V26.6726Z"
        fill="#0F1231" />
    <path class="text" fill-rule="evenodd" clip-rule="evenodd"
        d="M300.431 109.632C290.939 109.632 287.058 107.838 287.058 95.0375V84.1638C287.058 68.3073 291.19 67.9308 302.119 67.9308C312.296 67.9308 313.939 69.2596 313.939 79.0038C313.939 82.3922 311.883 84.186 307.618 84.186H290.298L295.614 95.0375H310.402C322.29 95.0375 328.243 90.1433 328.243 79.5353C328.243 58.3859 319.116 56.5035 301.366 56.5035C280.692 56.5035 272.64 60.7777 272.64 88.593C272.64 112.599 277.591 121.413 294.316 121.413C304.606 121.413 317.452 121.192 327.013 118.047V108.392C318.185 109.494 309.282 109.909 300.383 109.632H300.431Z"
        fill="#0F1231" />
    <path class="text" fill-rule="evenodd" clip-rule="evenodd"
        d="M359.276 56.0159C366.655 56.2307 373.936 57.7322 380.77 60.4451V26.451H395.053V120.837H383.645L380.77 114.193C374.472 118.554 367.041 121.116 359.32 121.59C342.481 121.59 337.783 107.24 337.783 89.2571C337.783 70.3444 340.931 56.0381 359.32 56.0381L359.276 56.0159ZM362.128 109.166C368.608 109.202 374.995 107.68 380.722 104.737V70.3222C374.721 68.4354 368.435 67.5385 362.128 67.6647C355.762 67.6647 352.087 71.2967 352.087 88.792C352.087 103.541 355.648 109.166 362.128 109.166Z"
        fill="#0F1231" />
    <path class="text" fill-rule="evenodd" clip-rule="evenodd"
        d="M406.462 38.0556C406.268 36.5874 407.335 35.2453 408.846 35.0571L409.425 35.0438H419.946C421.471 35.0084 422.735 36.1777 422.774 37.657L422.753 38.0556V47.2019C422.908 48.575 421.89 49.813 420.476 49.9658L419.946 49.9702H409.425C407.906 50.0809 406.58 48.9758 406.466 47.4987L406.462 47.2019V38.0556ZM407.306 120.837H421.678V56.9905H407.306V120.837Z"
        fill="#0F1231" />
    <path class="text" fill-rule="evenodd" clip-rule="evenodd"
        d="M465.031 55.7947C452.778 55.7947 443.015 56.8798 434.299 59.8252V68.7944C442.102 68.2407 456.522 67.3992 463.411 67.3992C469.163 67.3992 472.7 68.9937 472.7 75.9918C472.7 75.9918 472.7 80.421 472.7 81.3512V104.339C472.7 104.339 461.291 109.72 453.1 109.72C449.538 109.72 446.529 108.724 446.529 103.231V99.068C446.529 95.9011 447.736 92.4242 452.573 92.092L464.552 91.2283L469.346 81.5726C463.117 81.5726 450.405 81.5726 450.405 81.5726C437.698 81.5726 432.151 89.1244 432.151 98.5365V105.025C432.151 114.017 438.634 121.391 449.974 121.613C460.467 121.745 472.152 114.504 472.791 113.618L475.869 120.838H487.052V75.5711C487.052 60.7111 477.765 55.6396 465.031 55.7947Z"
        fill="#0F1231" />
    <path class="text" fill-rule="evenodd" clip-rule="evenodd"
        d="M493.967 54.1823C494.718 54.1823 495.136 53.8257 495.136 53.2256C495.136 52.5922 494.718 52.2357 493.967 52.2357H493.098V54.1823H493.967ZM493.098 57.6858H491.829V51.166H494.15C495.453 51.166 496.422 52.0585 496.422 53.2101C496.422 54.1181 495.822 54.8644 494.953 55.139L496.457 57.6858H495.001L493.598 55.2519H493.098V57.6858ZM493.865 59.2914C496.539 59.2914 498.647 57.1986 498.647 54.4746C498.647 51.7484 496.539 49.6734 493.865 49.6734C491.19 49.6734 489.087 51.7484 489.087 54.4746C489.087 57.1986 491.19 59.2914 493.865 59.2914ZM493.865 48.4886C497.257 48.4886 500 51.1815 500 54.4746C500 57.7677 497.257 60.4762 493.865 60.4762C490.492 60.4762 487.782 57.7677 487.782 54.4746C487.782 51.1815 490.492 48.4886 493.865 48.4886Z"
        fill="#0F1231" />
    <defs>
        <linearGradient id="paint0_linear_1075_9857" x1="-0.0018669" y1="-7.29061e-05" x2="113.46"
            y2="150" gradientUnits="userSpaceOnUse">
            <stop stop-color="#A200FF" />
            <stop offset="1" stop-color="#0F49CD" />
        </linearGradient>
        <linearGradient id="paint1_linear_1075_9857" x1="43.0607" y1="-3.58731e-05" x2="161.516"
            y2="150.691" gradientUnits="userSpaceOnUse">
            <stop stop-color="#A200FF" />
            <stop offset="1" stop-color="#0F49CD" />
        </linearGradient>
        <style>
            svg {
                color-scheme: normal;
            }
            .text {
                fill: #0F1231
            }
            @media (prefers-color-scheme:dark) {
                .icon,
                .text {
                    fill: #FFFFFF
                }
            }
        </style>
    </defs>
</svg>

<svg xmlns="http://www.w3.org/2000/svg" width="500" height="150" fill="none"><path fill-rule="evenodd" d="M0 116.029c.752 8.637 4.581 16.66 10.968 22.86 7.16 6.951 16.682 10.778 26.81 10.778l.947-.011c9.772-.231 18.924-4.033 25.86-10.767l16.008-15.536-7.171-6.958-16.006 15.535c-5.246 5.092-12.221 7.895-19.639 7.895s-14.395-2.803-19.641-7.895-8.134-11.861-8.134-19.061 2.889-13.972 8.134-19.063l15.967-15.498a4.818 4.818 0 000-6.958L18.137 55.852c-10.829-10.51-10.829-27.614 0-38.124 5.417-5.257 12.527-7.884 19.641-7.884s14.224 2.629 19.639 7.884L96.61 55.766a26.43 26.43 0 010 38.127l-16.015 15.545 7.169 6.958 16.015-15.544a36.08 36.08 0 000-52.043L64.586 10.77C57.196 3.594 47.487.009 37.778.009s-19.42 3.585-26.81 10.761C4.344 17.199.688 25.436 0 33.859v5.863c.688 8.424 4.344 16.659 10.968 23.088l12.383 12.019-12.383 12.019C4.579 93.049.752 101.071 0 109.709v6.32z" fill="url(#prefix__A)"/><path fill-rule="evenodd" d="M123.418 0c-10.126 0-19.647 3.829-26.807 10.779L80.602 26.314l7.171 6.958 16.007-15.535c5.245-5.091 12.221-7.897 19.638-7.897s14.396 2.806 19.641 7.897c10.829 10.511 10.829 27.614 0 38.124l-15.967 15.498a4.816 4.816 0 000 6.958l15.967 15.498c10.829 10.51 10.829 27.614 0 38.124-5.245 5.092-12.22 7.895-19.638 7.895s-14.396-2.803-19.641-7.895L64.587 93.901c-5.246-5.094-8.137-11.861-8.137-19.063s2.891-13.97 8.137-19.063L80.602 40.23l-7.169-6.958-16.015 15.544c-7.16 6.952-11.105 16.193-11.105 26.022s3.945 19.07 11.105 26.022l39.193 38.038c7.16 6.951 16.681 10.778 26.807 10.778h.003c10.126 0 19.647-3.827 26.807-10.778 14.784-14.349 14.784-37.693 0-52.041l-12.382-12.019 12.382-12.019c14.784-14.348 14.784-37.695 0-52.041C143.068 3.827 133.547 0 123.418 0z" fill="url(#prefix__B)" opacity=".8"/><path d="M207.243 26.673h14.332v37.36c6.204-3.964 12.115-8.105 22.155-8.105 14.512 0 19.874 10.121 19.874 21.703v43.206h-14.377V77.453c0-6.932-3.535-9.7-8.669-9.7-8.054 0-12.23 1.993-18.938 6.001v47.082h-14.377V26.673zm93.188 82.959c-9.492 0-13.373-1.794-13.373-14.595V84.164c0-15.856 4.132-16.233 15.061-16.233 10.177 0 11.82 1.329 11.82 11.073 0 3.388-2.056 5.182-6.321 5.182h-17.32l5.316 10.851h14.788c11.888 0 17.841-4.894 17.841-15.502 0-21.149-9.127-23.032-26.877-23.032-20.674 0-28.726 4.274-28.726 32.09 0 24.006 4.951 32.82 21.676 32.82 10.29 0 23.136-.221 32.697-3.366v-9.655a171.824 171.824 0 01-26.63 1.24h.048zm58.845-53.616a63.27 63.27 0 0121.494 4.429V26.451h14.283v94.386h-11.408l-2.875-6.644c-6.298 4.361-13.729 6.923-21.45 7.397-16.839 0-21.537-14.35-21.537-32.333 0-18.913 3.148-33.219 21.537-33.219l-.044-.022zm2.852 53.15a40.214 40.214 0 0018.594-4.429V70.322a58.14 58.14 0 00-18.594-2.657c-6.366 0-10.041 3.632-10.041 21.127 0 14.749 3.561 20.374 10.041 20.374zm44.334-71.11c-.194-1.468.873-2.81 2.384-2.998l.579-.013h10.521c1.525-.035 2.789 1.134 2.828 2.613l-.021.399v9.146c.155 1.373-.863 2.611-2.277 2.764l-.53.004h-10.521c-1.519.111-2.845-.994-2.959-2.471l-.004-.297v-9.146zm.844 82.781h14.372V56.991h-14.372v63.847zm57.725-65.042c-12.253 0-22.016 1.085-30.732 4.031v8.969c7.803-.554 22.223-1.395 29.112-1.395 5.752 0 9.289 1.595 9.289 8.593v28.347s-11.409 5.381-19.6 5.381c-3.562 0-6.571-.996-6.571-6.489v-4.163c0-3.167 1.207-6.644 6.044-6.976l11.979-.864 4.794-9.656h-18.941c-12.707 0-18.254 7.552-18.254 16.964v6.489c0 8.992 6.483 16.366 17.823 16.588 10.493.132 22.178-7.109 22.817-7.995l3.078 7.22h11.183V75.571c0-14.86-9.287-19.931-22.021-19.776zm28.936-1.613c.751 0 1.169-.357 1.169-.957 0-.633-.418-.99-1.169-.99h-.869v1.947h.869zm-.869 3.504h-1.269v-6.52h2.321c1.303 0 2.272.893 2.272 2.044 0 .908-.6 1.654-1.469 1.929l1.504 2.547h-1.456l-1.403-2.434h-.5v2.434zm.767 1.606c2.674 0 4.782-2.093 4.782-4.817a4.72 4.72 0 00-4.782-4.801c-2.675 0-4.778 2.075-4.778 4.801s2.103 4.817 4.778 4.817zm0-10.803c3.392 0 6.135 2.693 6.135 5.986s-2.743 6.002-6.135 6.002c-3.373 0-6.083-2.709-6.083-6.002s2.71-5.986 6.083-5.986z" fill-rule="evenodd" fill="#FFF"/><defs><linearGradient id="prefix__A" x1="-.002" y1="0" x2="113.46" y2="150" gradientUnits="userSpaceOnUse"><stop stop-color="#A100FF"/><stop offset="1" stop-color="#01FFFB"/></linearGradient><linearGradient id="prefix__B" x1="43.061" y1="0" x2="161.516" y2="150.691" gradientUnits="userSpaceOnUse"><stop stop-color="#A100FF"/><stop offset="1" stop-color="#01FFFB"/></linearGradient></defs></svg>
